icons/clapperboard-line.svg

<svg xmlns="http://www.w3.org/2000/svg" width="24" height="24" fill="none"><g clip-path="url(#a)"><g><path fill="#121212" d="M5.998 7L8.308 3H11.998L9.688 7H5.998ZM11.998 7L14.308 3H17.998L15.688 7H11.998ZM17.998 7L20.308 3H21.008C21.556 3 22 3.445 22 3.993V20.007C21.9982 20.2696 21.8931 20.521 21.7075 20.7068C21.5219 20.8926 21.2706 20.9979 21.008 21H2.992C2.72881 20.9997 2.4765 20.895 2.29049 20.7088C2.10448 20.5226 2 20.2702 2 20.007V3.993C2.00183 3.73038 2.1069 3.47902 2.29251 3.29322C2.47813 3.10742 2.72938 3.00209 2.992 3H5.998L4 6.46V19H20V7H17.998Z"/></g></g><defs><clipPath id="a"><rect width="24" height="24" fill="white"/></clipPath></defs></svg>

<svg width="24" height="24" fill="none" xmlns="http://www.w3.org/2000/svg"><g clip-path="url(#a)"><path d="m5.998 7 2.31-4h3.69l-2.31 4h-3.69Zm6 0 2.31-4h3.69l-2.31 4h-3.69Zm6 0 2.31-4h.7c.548 0 .992.445.992.993v16.014a1 1 0 0 1-.992.993H2.992A.993.993 0 0 1 2 20.007V3.993A1 1 0 0 1 2.992 3h3.006L4 6.46V19h16V7h-2.002Z" /></g><defs><clipPath id="a"><path fill="#fff" d="M0 0h24v24H0z"/></clipPath></defs></svg>
